icons/RaspberryPi-Light.svg

<svg width="256" height="256" viewBox="0 0 256 256" fill="none" xmlns="http://www.w3.org/2000/svg">
<rect width="256" height="256" rx="60" fill="#F4F2ED"/>
<path d="M90.582 29.0032C89.543 29.0342 88.424 29.4022 87.154 30.3622C84.042 29.2132 81.026 28.8142 78.329 31.1532C74.163 30.6362 72.809 31.7042 71.784 32.9532C70.87 32.9342 64.942 32.0512 62.224 35.9372C55.393 35.1632 53.232 39.7882 55.678 44.0982C54.285 46.1702 52.837 48.2122 56.101 52.1592C54.947 54.3562 55.662 56.7392 58.382 59.6262C57.664 62.7132 59.074 64.8932 61.604 66.5922C61.13 70.8182 65.649 73.2782 66.999 74.1522C67.517 76.6142 68.597 78.9402 73.761 80.2232C74.608 83.8972 77.712 84.5302 80.716 85.2992C70.787 90.8312 62.274 98.1042 62.333 115.955L60.877 118.442C49.491 125.076 39.25 146.395 55.266 163.725C56.314 169.15 58.066 173.045 59.628 177.358C61.966 194.735 77.215 202.871 81.236 203.834C87.131 208.134 93.408 212.214 101.902 215.074C109.909 222.988 118.585 226.003 127.308 226H127.692C136.417 226.004 145.093 222.988 153.098 215.074C161.593 212.216 167.869 208.134 173.764 203.834C177.786 202.871 193.036 194.735 195.371 177.356C196.933 173.045 198.687 169.15 199.735 163.725C215.75 146.395 205.509 125.073 194.122 118.438L192.668 115.954C192.726 98.1042 184.212 90.8272 174.283 85.2982C177.287 84.5282 180.391 83.8922 181.241 80.2222C186.402 78.9372 187.481 76.6132 188 74.1502C189.349 73.2732 193.87 70.8172 193.396 66.5872C195.925 64.8912 197.335 62.7102 196.618 59.6212C199.338 56.7372 200.052 54.3532 198.897 52.1552C202.162 48.2122 200.713 46.1672 199.32 44.0972C201.765 39.7842 199.608 35.1612 192.774 35.9352C190.056 32.0512 184.129 32.9342 183.216 32.9512C182.189 31.7032 180.834 30.6352 176.669 31.1522C173.973 28.8142 170.955 29.2132 167.844 30.3622C164.151 27.5692 161.704 29.8082 158.913 30.6552C154.44 29.2532 153.417 31.1722 151.221 31.9542C146.343 30.9662 144.86 33.1162 142.521 35.3862L139.801 35.3352C132.444 39.4872 128.79 47.9482 127.496 52.2972C126.198 47.9462 122.553 39.4862 115.197 35.3352L112.477 35.3842C110.135 33.1142 108.653 30.9662 103.776 31.9542C101.579 31.1722 100.557 29.2542 96.082 30.6552C94.248 30.0992 92.563 28.9432 90.579 29.0022L90.582 29.0032Z" fill="#050606"/>
<path d="M76.0822 47.2811C95.6012 56.9201 106.946 64.7221 113.164 71.3661C109.981 83.5911 93.3732 84.1481 87.2992 83.8051C88.5442 83.2511 89.5812 82.5861 89.9492 81.5671C88.4252 80.5301 83.0232 81.4581 79.2502 79.4261C80.6992 79.1381 81.3772 78.8581 82.0552 77.8351C78.4902 76.7451 74.6522 75.8061 72.3942 74.0011C73.6132 74.0181 74.7502 74.2641 76.3422 73.2051C73.1492 71.5571 69.7432 70.2521 67.0982 67.7321C68.7442 67.6941 70.5262 67.7151 71.0442 67.1351C68.1222 65.4021 65.6572 63.4721 63.6182 61.3641C65.9282 61.6301 66.9022 61.4011 67.4622 61.0131C65.2522 58.8471 62.4572 57.0171 61.1242 54.3471C62.8392 54.9131 64.4082 55.1301 65.5392 54.2961C64.7872 52.6741 61.5742 51.7171 59.7212 47.9281C61.5272 48.0941 63.4422 48.3051 63.8232 47.9281C62.9872 44.6561 61.5502 42.8161 60.1392 40.9131C64.0022 40.8571 69.8562 40.9251 69.5912 40.6111L67.2012 38.2751C70.9762 37.3001 74.8382 38.4321 77.6422 39.2691C78.9002 38.3181 77.6202 37.1161 76.0852 35.8841C79.2922 36.2951 82.1892 37.0031 84.8072 37.9761C86.2082 36.7651 83.9002 35.5551 82.7832 34.3421C87.7382 35.2441 89.8382 36.5091 91.9232 37.7781C93.4382 36.3861 92.0102 35.2061 90.9902 33.9961C94.7252 35.3211 96.6492 37.0341 98.6772 38.7231C99.3642 37.8331 100.42 37.1821 99.1442 35.0401C101.795 36.5051 103.793 38.2321 105.271 40.1651C106.912 39.1631 106.249 37.7931 106.259 36.5321C109.016 38.6811 110.764 40.9661 112.908 43.2011C113.336 42.9011 113.714 41.8791 114.049 40.2651C120.625 46.3781 129.919 61.7781 116.437 67.8831C104.964 58.8181 91.2612 52.2261 76.0772 47.2811H76.0802H76.0822ZM179.464 47.2811C159.947 56.9221 148.599 64.7201 142.383 71.3661C145.568 83.5911 162.176 84.1481 168.247 83.8051C167.003 83.2511 165.967 82.5861 165.6 81.5671C167.123 80.5301 172.527 81.4581 176.298 79.4261C174.849 79.1381 174.17 78.8581 173.494 77.8351C177.057 76.7451 180.896 75.8061 183.154 74.0011C181.935 74.0181 180.796 74.2641 179.205 73.2051C182.398 71.5571 185.804 70.2521 188.452 67.7321C186.8 67.6941 185.022 67.7151 184.504 67.1351C187.427 65.4021 189.892 63.4721 191.932 61.3641C189.621 61.6301 188.647 61.4011 188.087 61.0131C190.296 58.8471 193.091 57.0171 194.424 54.3471C192.709 54.9131 191.141 55.1301 190.009 54.2961C190.76 52.6741 193.974 51.7171 195.827 47.9281C194.019 48.0941 192.106 48.3051 191.722 47.9281C192.563 44.6561 193.998 42.8151 195.41 40.9111C191.547 40.8561 185.692 40.9231 185.957 40.6111L188.349 38.2751C184.572 37.2991 180.71 38.4301 177.908 39.2671C176.648 38.3161 177.932 37.1141 179.464 35.8831C176.26 36.2941 173.36 37.0021 170.742 37.9751C169.341 36.7631 171.65 35.5541 172.766 34.3411C167.811 35.2431 165.713 36.5081 163.625 37.7741C162.112 36.3851 163.54 35.2041 164.559 33.9951C160.823 35.3201 158.899 37.0331 156.873 38.7191C156.187 37.8311 155.129 37.1801 156.406 35.0361C153.754 36.5031 151.755 38.2281 150.277 40.1631C148.636 39.1611 149.3 37.7911 149.289 36.5311C146.535 38.6791 144.784 40.9661 142.642 43.2001C142.212 42.9001 141.834 41.8781 141.5 40.2631C134.923 46.3761 125.63 61.7761 139.111 67.8821C150.58 58.8121 164.279 52.2231 179.467 47.2801H179.464" fill="#63C54D"/>
<path d="M151.379 171.774C151.447 183.182 141.034 192.48 128.122 192.541C115.209 192.601 104.687 183.402 104.618 171.992V171.774C104.549 160.365 114.962 151.067 127.874 151.007C140.788 150.947 151.31 160.146 151.379 171.555V171.772V171.774ZM114.925 112.763C124.611 118.844 126.357 132.629 118.825 143.552C111.29 154.475 97.3308 158.401 87.6418 152.319C77.9558 146.238 76.2088 132.451 83.7428 121.53C91.2758 110.605 105.236 106.681 114.925 112.763ZM141.072 111.661C131.384 117.744 129.638 131.527 137.172 142.452C144.706 153.373 158.666 157.301 168.352 151.217C178.042 145.136 179.786 131.351 172.253 120.428C164.718 109.507 150.76 105.58 141.072 111.663V111.661ZM67.1049 122.769C77.5629 120.081 70.6349 164.229 62.1268 160.608C52.7638 153.393 49.7478 132.265 67.1028 122.769H67.1049ZM187.978 122.219C177.517 119.534 184.445 163.682 192.957 160.06C202.318 152.844 205.332 131.715 187.978 122.219ZM152.897 89.2812C170.948 86.3602 185.966 96.6342 185.36 115.389C184.766 122.578 146.246 90.3502 152.897 89.2792V89.2812ZM103.025 88.7302C84.9719 85.8092 69.9528 96.0862 70.5598 114.839C71.1538 122.028 109.675 89.7992 103.025 88.7302ZM127.891 84.3562C117.12 84.0882 106.781 92.0192 106.754 96.6152C106.726 102.205 115.272 107.926 127.967 108.072C140.928 108.16 149.199 103.492 149.241 97.7252C149.288 91.1912 137.451 84.2562 127.891 84.3562ZM128.724 198.957C138.117 198.563 150.722 201.855 150.745 206.221C150.902 210.461 139.315 220.041 128.101 219.857C116.488 220.338 105.1 210.742 105.25 207.417C105.075 202.54 119.392 198.734 128.724 198.957ZM93.9638 173.078C100.65 180.798 103.697 194.36 98.1189 198.357C92.8399 201.41 80.0169 200.153 70.9019 187.608C64.7579 177.084 65.5508 166.372 69.8658 163.224C76.3188 159.458 86.2898 164.546 93.9618 173.078H93.9638ZM161.293 170.63C154.056 178.752 150.027 193.561 155.305 198.331C160.351 202.038 173.899 201.519 183.908 188.214C191.175 179.278 188.739 164.357 184.589 160.394C178.423 155.823 169.572 161.672 161.292 170.627V170.63" fill="#C51850"/>
</svg>

<svg xmlns="http://www.w3.org/2000/svg" width="256" height="256" fill="none" viewBox="0 0 256 256"><rect width="256" height="256" fill="#F4F2ED" rx="60"/><path fill="#050606" d="M90.58 29a6 6 0 0 0-3.43 1.36c-3.1-1.15-6.12-1.55-8.82.8-4.17-.52-5.52.54-6.55 1.8-.91-.03-6.84-.9-9.56 2.98-6.83-.78-8.99 3.85-6.54 8.16-1.4 2.07-2.84 4.11.42 8.06-1.15 2.2-.44 4.58 2.28 7.47-.72 3.08.7 5.26 3.22 6.96-.47 4.23 4.05 6.69 5.4 7.56.52 2.46 1.6 4.79 6.76 6.07.85 3.68 3.95 4.31 6.96 5.08-9.93 5.53-18.45 12.8-18.39 30.66l-1.45 2.48c-11.39 6.64-21.63 27.96-5.61 45.29 1.04 5.42 2.8 9.31 4.36 13.63 2.34 17.38 17.59 25.51 21.6 26.47 5.9 4.3 12.18 8.38 20.67 11.24 8 7.92 16.68 10.93 25.4 10.93h.4c8.72 0 17.4-3.01 25.4-10.93 8.5-2.85 14.77-6.94 20.66-11.24 4.03-.96 19.28-9.1 21.61-26.47 1.56-4.32 3.32-8.21 4.37-13.64 16.01-17.32 5.77-38.65-5.62-45.28l-1.45-2.49c.06-17.85-8.46-25.12-18.39-30.65 3-.77 6.11-1.4 6.96-5.08 5.16-1.28 6.24-3.6 6.76-6.07 1.35-.88 5.87-3.33 5.4-7.56 2.53-1.7 3.94-3.88 3.22-6.97 2.72-2.88 3.43-5.27 2.28-7.46 3.26-3.95 1.81-6 .42-8.06 2.44-4.32.29-8.94-6.55-8.16-2.71-3.89-8.64-3-9.55-2.99-1.03-1.25-2.39-2.31-6.55-1.8-2.7-2.34-5.71-1.94-8.83-.79-3.69-2.8-6.14-.55-8.93.3-4.47-1.4-5.5.51-7.69 1.3-4.88-1-6.36 1.16-8.7 3.43l-2.72-.05c-7.36 4.15-11.01 12.6-12.3 16.96-1.3-4.35-4.95-12.81-12.3-16.96l-2.72.04c-2.34-2.27-3.83-4.41-8.7-3.43-2.2-.78-3.22-2.7-7.7-1.3-1.83-.55-3.52-1.7-5.5-1.65"/><path fill="#63C54D" d="M76.08 47.28c19.52 9.64 30.87 17.44 37.08 24.09-3.18 12.22-19.79 12.78-25.86 12.44 1.24-.56 2.28-1.22 2.65-2.24-1.52-1.04-6.93-.11-10.7-2.14 1.45-.3 2.13-.57 2.8-1.6-3.56-1.08-7.4-2.02-9.66-3.83 1.22.02 2.36.26 3.95-.8-3.2-1.64-6.6-2.95-9.24-5.47 1.64-.04 3.43-.01 3.94-.6a35 35 0 0 1-7.42-5.77c2.3.27 3.28.04 3.84-.35-2.2-2.16-5-4-6.34-6.66 1.72.56 3.29.78 4.42-.05-.75-1.63-3.97-2.58-5.82-6.37 1.8.16 3.72.38 4.1 0-.83-3.27-2.27-5.11-3.68-7.02 3.86-.05 9.72.02 9.45-.3l-2.39-2.33c3.78-.98 7.64.15 10.44.99 1.26-.95-.02-2.15-1.55-3.39q4.8.63 8.72 2.1c1.4-1.21-.91-2.42-2.03-3.64 4.96.9 7.06 2.17 9.14 3.44 1.52-1.4.09-2.57-.93-3.78 3.74 1.32 5.66 3.03 7.69 4.72.68-.89 1.74-1.54.46-3.68a19 19 0 0 1 6.13 5.13c1.64-1 .98-2.38.99-3.64 2.76 2.15 4.5 4.44 6.65 6.67.43-.3.8-1.32 1.14-2.93 6.58 6.1 15.87 21.5 2.39 27.61-11.48-9.06-25.18-15.65-40.36-20.6m103.38 0c-19.51 9.64-30.86 17.44-37.08 24.09 3.19 12.22 19.8 12.78 25.87 12.44-1.25-.56-2.28-1.22-2.65-2.24 1.52-1.04 6.93-.11 10.7-2.14-1.45-.3-2.13-.57-2.8-1.6 3.56-1.08 7.4-2.02 9.65-3.83-1.22.02-2.35.26-3.94-.8 3.19-1.64 6.6-2.95 9.24-5.47-1.65-.04-3.43-.01-3.95-.6a35 35 0 0 0 7.43-5.77c-2.3.27-3.28.04-3.84-.35 2.2-2.16 5-4 6.33-6.66-1.71.56-3.28.78-4.41-.05.75-1.63 3.96-2.58 5.82-6.37-1.81.16-3.72.38-4.1 0 .83-3.27 2.27-5.11 3.68-7.02-3.86-.05-9.72.01-9.45-.3l2.39-2.33c-3.78-.98-7.64.15-10.44.99-1.26-.95.02-2.16 1.55-3.39q-4.8.62-8.72 2.1c-1.4-1.22.91-2.43 2.03-3.64-4.96.9-7.06 2.17-9.15 3.43-1.5-1.38-.08-2.57.94-3.77-3.74 1.32-5.66 3.03-7.69 4.72-.68-.89-1.74-1.54-.46-3.68a19 19 0 0 0-6.13 5.12c-1.64-1-.98-2.37-1-3.63-2.75 2.15-4.5 4.44-6.64 6.67-.43-.3-.8-1.32-1.14-2.94-6.58 6.12-15.87 21.52-2.39 27.62 11.47-9.07 25.17-15.66 40.36-20.6"/><path fill="#C51850" d="M151.38 171.77c.07 11.41-10.35 20.71-23.26 20.77s-23.43-9.14-23.5-20.55v-.22c-.07-11.4 10.34-20.7 23.25-20.76s23.44 9.14 23.5 20.55zm-36.45-59c9.68 6.07 11.43 19.86 3.9 30.78-7.54 10.92-21.5 14.85-31.19 8.77-9.68-6.08-11.43-19.87-3.9-30.79 7.54-10.92 21.5-14.85 31.19-8.77m26.14-1.1c-9.69 6.07-11.43 19.86-3.9 30.78 7.54 10.92 21.5 14.85 31.18 8.77 9.7-6.08 11.44-19.87 3.9-30.8-7.53-10.91-21.49-14.84-31.18-8.76m-73.97 11.1c10.46-2.69 3.53 41.46-4.97 37.84-9.37-7.22-12.38-28.35 4.97-37.84m120.88-.55c-10.46-2.69-3.53 41.46 4.98 37.84 9.36-7.22 12.37-28.34-4.98-37.84M152.9 89.28c18.05-2.92 33.07 7.35 32.46 26.1-.6 7.2-39.11-25.03-32.46-26.1m-49.87-.55c-18.06-2.92-33.08 7.36-32.47 26.1.6 7.2 39.11-25.03 32.47-26.1m24.86-4.37c-10.77-.27-21.1 7.66-21.14 12.26-.02 5.58 8.52 11.3 21.22 11.45 12.96.09 21.23-4.58 21.27-10.34.05-6.54-11.79-13.47-21.35-13.37m.83 114.6c9.4-.4 22 2.9 22.03 7.26.15 4.24-11.44 13.82-22.65 13.64-11.61.48-23-9.12-22.85-12.44-.17-4.88 14.14-8.69 23.47-8.46m-34.76-25.88c6.69 7.72 9.74 21.28 4.16 25.28-5.28 3.05-18.1 1.8-27.22-10.75-6.14-10.53-5.35-21.24-1.03-24.39 6.45-3.76 16.42 1.33 24.1 9.86m67.33-2.45c-7.23 8.12-11.26 22.93-5.98 27.7 5.04 3.7 18.59 3.19 28.6-10.12 7.27-8.93 4.83-23.85.68-27.82-6.17-4.57-15.02 1.28-23.3 10.24"/></svg>
